X: 204
T: The House on the Hill
T: Miss Thornton’s
M:4/4
R:reel
L:1/8
K:G
"G"G2Bd gdBd|"Am"cBAB cded|"G"~B3A GBdg|"Am"ecAF "G"GFED|
"G"G2Bd gdBd|"Am"cBAB cded|"G"~B3A GABd|1"Am7"egfa "G"gedB:|2"Am7"egfa "G"g3a|
"G"bg g2 b2ag|"Cadd9"egdg egdg|"G"bg g2 b2ag|"Am7"egfa "G"~g3a|
"G"bg g2 b2ag|"Cadd9"egdg egdg|"G"g2ga gfed|1"Am7"egfa "G"g3a:|2"Am7"egfa "G"gedB||


